X: 9218
T: Dan Cleary's Ireland
R: reel
M: 4/4
K: Amixolydian
e2cA eAcA|G2 G2 dGeG|EA A2 BG G2|BedB AGEG|
A2eA BedB|G2 G2 EDB,D|EA A2 BG G2|1 BedB A3 c:|2 BedB A2 Bd|
eaa2 bage|a2 ba gedB|dg g2 gede|g2 bg ageg|
a2 ba gedB|A2 eB dBGA|BedB dBGE|GABG A2 Bd||
eaa2 bage|a2 ba gedB|A3 B AEGA|Bged egg2|
a2 ba gedB|A2 eB dBGA|BedB dBGE|GABG A3 z1||

